symbols/web/no_food/materialsymbolssharp/no_food_24px.svg

<svg xmlns="http://www.w3.org/2000/svg" height="24" width="24"><path d="M20.475 23.3.675 3.5 2.1 2.075l19.8 19.8Zm1.15-4.55L19.8 16.925 20.8 7h-9.55L11 5h5V1h2v4h5Zm-6-5.975ZM1 19v-2h15v2Zm0 4v-2h15v2ZM9.05 9.025v2q-.125 0-.275-.013Q8.625 11 8.5 11q-1.475 0-2.787.5Q4.4 12 3.675 13h9.35l2 2H1q0-3.025 2.338-4.512Q5.675 9 8.5 9q.125 0 .275.012.15.013.275.013ZM8.5 13Z"/></svg>

<svg xmlns="http://www.w3.org/2000/svg" height="24" width="24"><path d="M20.475 23.3 12.175 15H1Q1 12.825 2.45 11.287Q3.9 9.75 6.4 9.225L0.675 3.5L2.1 2.075L21.9 21.875ZM1 23V21H16V23ZM1 17H16V19H1ZM21.625 18.75 19.8 16.925 20.8 7H11.25L11 5H16V1H18V5H23ZM15.625 12.775ZM3.625 13H10.175L8.175 11Q8.175 11 8.213 11Q8.25 11 8.5 11Q7.45 11 5.95 11.412Q4.45 11.825 3.625 13ZM10.175 13Q10.175 13 10.175 13Q10.175 13 10.175 13Q10.175 13 10.175 13Q10.175 13 10.175 13Z"/></svg>
